;FLAVOR:Marlin
;TIME:1776
;Filament used: 1.59239m
;Layer height: 0.2
;MINX:82.891
;MINY:85.2
;MINZ:0.3
;MAXX:117.11
;MAXY:114.8
;MAXZ:26.5
;Generated with Cura_SteamEngine 4.13.1
M140 S60
M105
M190 S60
M104 S200
M105
M109 S200
M82 ;absolute extrusion mode
G21 ;metric values
 G90 ;absolute positioning
 M82 ;set extruder to absolute mode
 M107 ;start with the fan off
 G28 X0 Y0 ;move X/Y to min endstops
 G28 Z0 ;move Z to min endstops
 G1 Z15.0 F120 ;move the platform down 15mm
 G92 E0 ;zero the extruded length
 G1 F200 E6 ;extrude 6 mm of feed stock
 G92 E0 ;zero the extruded length again
 G1 F120 
 ;Put printing message on LCD screen
 M117 Printing...
G92 E0
G92 E0
G1 F1500 E-6.5
;LAYER_COUNT:133
;LAYER:0
M107
G0 F3600 X85.293 Y87.485 Z0.3
;TYPE:SKIRT
G1 F1500 E0
G1 F1800 X85.879 Y86.955 E0.03942
G1 X86.515 Y86.488 E0.07878
G1 X87.195 Y86.087 E0.11817
G1 X87.913 Y85.757 E0.15759
G1 X88.66 Y85.502 E0.19697
G1 X89.429 Y85.323 E0.23636
G1 X90.213 Y85.223 E0.27579
G1 X90.808 Y85.2 E0.3055
G1 X91.692 Y85.2 E0.3496
G1 X92.481 Y85.24 E0.38902
G1 X93.261 Y85.359 E0.42838
G1 X94.026 Y85.557 E0.46781
G1 X94.766 Y85.831 E0.50718
G1 X95.475 Y86.179 E0.54658
G1 X96.146 Y86.597 E0.58602
G1 X96.77 Y87.08 E0.62539
G1 X96.879 Y87.181 E0.6328
G1 X97.094 Y87.088 E0.64449
G1 X97.848 Y86.851 E0.68392
G1 X98.621 Y86.691 E0.7233
G1 X99.407 Y86.61 E0.76272
G1 X100.191 Y86.6 E0.80184
G1 X100.98 Y86.64 E0.84125
G1 X101.76 Y86.759 E0.88062
G1 X102.525 Y86.957 E0.92004
G1 X103.129 Y87.181 E0.95218
G1 X103.379 Y86.955 E0.969
G1 X104.015 Y86.488 E1.00836
G1 X104.695 Y86.087 E1.04775
G1 X105.413 Y85.757 E1.08717
G1 X106.16 Y85.502 E1.12655
G1 X106.929 Y85.323 E1.16594
G1 X107.713 Y85.223 E1.20537
G1 X108.308 Y85.2 E1.23508
G1 X109.192 Y85.2 E1.27918
G1 X109.981 Y85.24 E1.31859
G1 X110.761 Y85.359 E1.35796
G1 X111.526 Y85.557 E1.39738
G1 X112.266 Y85.831 E1.43675
G1 X112.975 Y86.179 E1.47615
G1 X113.646 Y86.597 E1.51559
G1 X114.27 Y87.08 E1.55496
G1 X114.707 Y87.485 E1.58469
G1 X114.824 Y87.602 E1.59294
G1 X115.354 Y88.188 E1.63236
G1 X115.821 Y88.824 E1.67173
G1 X116.222 Y89.504 E1.71111
G1 X116.552 Y90.222 E1.75054
G1 X116.807 Y90.969 E1.78992
G1 X116.986 Y91.738 E1.82931
G1 X117.086 Y92.522 E1.86874
G1 X117.109 Y93.116 E1.89839
G1 X117.11 Y106.882 E2.58518
G1 X117.07 Y107.671 E2.6246
G1 X116.951 Y108.452 E2.66401
G1 X116.753 Y109.216 E2.70339
G1 X116.479 Y109.957 E2.7428
G1 X116.131 Y110.666 E2.7822
G1 X115.714 Y111.336 E2.82158
G1 X115.231 Y111.961 E2.86098
G1 X114.825 Y112.398 E2.89074
G1 X114.708 Y112.515 E2.899
G1 X114.122 Y113.045 E2.93842
G1 X113.486 Y113.512 E2.97778
G1 X112.806 Y113.913 E3.01717
G1 X112.088 Y114.243 E3.05659
G1 X111.341 Y114.498 E3.09597
G1 X110.572 Y114.677 E3.13536
G1 X109.788 Y114.777 E3.17479
G1 X109.193 Y114.8 E3.2045
G1 X108.308 Y114.8 E3.24865
G1 X107.519 Y114.76 E3.28807
G1 X106.739 Y114.641 E3.32743
G1 X105.974 Y114.443 E3.36685
G1 X105.234 Y114.169 E3.40622
G1 X104.525 Y113.821 E3.44563
G1 X103.854 Y113.403 E3.48507
G1 X103.23 Y112.92 E3.52443
G1 X103.122 Y112.82 E3.53178
G1 X102.905 Y112.913 E3.54356
G1 X102.152 Y113.15 E3.58294
G1 X101.378 Y113.309 E3.62236
G1 X100.593 Y113.39 E3.66173
G1 X99.81 Y113.4 E3.7008
G1 X99.021 Y113.36 E3.74021
G1 X98.241 Y113.241 E3.77958
G1 X97.476 Y113.043 E3.819
G1 X96.872 Y112.819 E3.85114
G1 X96.622 Y113.045 E3.86796
G1 X95.986 Y113.512 E3.90732
G1 X95.306 Y113.913 E3.94671
G1 X94.588 Y114.243 E3.98613
G1 X93.841 Y114.498 E4.02551
G1 X93.072 Y114.677 E4.0649
G1 X92.288 Y114.777 E4.10433
G1 X91.693 Y114.8 E4.13404
G1 X90.808 Y114.8 E4.17819
G1 X90.019 Y114.76 E4.2176
G1 X89.239 Y114.641 E4.25697
G1 X88.474 Y114.443 E4.29639
G1 X87.734 Y114.169 E4.33576
G1 X87.025 Y113.821 E4.37516
G1 X86.354 Y113.403 E4.41461
G1 X85.73 Y112.92 E4.45397
G1 X85.293 Y112.515 E4.4837
G1 X85.176 Y112.398 E4.49195
G1 X84.646 Y111.812 E4.53137
G1 X84.179 Y111.176 E4.57074
G1 X83.778 Y110.496 E4.61012
G1 X83.448 Y109.778 E4.64955
G1 X83.193 Y109.031 E4.68893
G1 X83.014 Y108.262 E4.72832
G1 X82.914 Y107.478 E4.76775
G1 X82.891 Y106.883 E4.79746
G1 X82.891 Y93.117 E5.48424
G1 X82.931 Y92.328 E5.52366
G1 X83.05 Y91.548 E5.56302
G1 X83.248 Y90.783 E5.60245
G1 X83.522 Y90.043 E5.64181
G1 X83.87 Y89.334 E5.68122
G1 X84.288 Y88.663 E5.72066
G1 X84.771 Y88.039 E5.76003
G1 X85.176 Y87.602 E5.78975
G1 X85.293 Y87.485 E5.79801
G0 F3600 X85.575 Y87.767
G1 F1800 X86.147 Y87.253 E5.83637
G1 X86.769 Y86.8 E5.87476
G1 X87.434 Y86.414 E5.91312
G1 X88.136 Y86.099 E5.95151
G1 X88.867 Y85.859 E5.9899
G1 X89.618 Y85.696 E6.02823
G1 X90.383 Y85.612 E6.06663
G1 X90.808 Y85.6 E6.08784
G1 X91.692 Y85.6 E6.13195
G1 X92.46 Y85.64 E6.17031
G1 X93.22 Y85.759 E6.20869
G1 X93.963 Y85.957 E6.24705
G1 X94.682 Y86.231 E6.28544
G1 X95.368 Y86.578 E6.32379
G1 X96.015 Y86.994 E6.36217
G1 X96.615 Y87.475 E6.40054
G1 X96.795 Y87.645 E6.41289
G1 X97.46 Y87.383 E6.44855
G1 X98.201 Y87.177 E6.48692
G1 X98.959 Y87.049 E6.52527
G1 X99.809 Y87 E6.56775
G1 X100.191 Y87 E6.5868
G1 X100.959 Y87.04 E6.62517
G1 X101.719 Y87.159 E6.66355
G1 X102.462 Y87.357 E6.70191
G1 X103.181 Y87.631 E6.7403
G1 X103.21 Y87.646 E6.74193
G1 X103.647 Y87.253 E6.77125
G1 X104.269 Y86.8 E6.80964
G1 X104.934 Y86.414 E6.848
G1 X105.636 Y86.099 E6.88639
G1 X106.367 Y85.859 E6.92477
G1 X107.118 Y85.696 E6.96311
G1 X107.883 Y85.612 E7.00151
G1 X108.308 Y85.6 E7.02272
G1 X109.192 Y85.6 E7.06682
G1 X109.96 Y85.64 E7.10519
G1 X110.72 Y85.759 E7.14357
G1 X111.463 Y85.957 E7.18193
G1 X112.182 Y86.231 E7.22032
G1 X112.868 Y86.578 E7.25867
G1 X113.515 Y86.994 E7.29705
G1 X114.115 Y87.475 E7.33541
G1 X114.542 Y87.884 E7.36491
G1 X115.056 Y88.456 E7.40328
G1 X115.509 Y89.078 E7.44167
G1 X115.895 Y89.743 E7.48003
G1 X116.21 Y90.445 E7.51842
G1 X116.45 Y91.176 E7.5568
G1 X116.613 Y91.927 E7.59514
G1 X116.697 Y92.692 E7.63354
G1 X116.709 Y93.116 E7.6547
G1 X116.71 Y106.882 E8.34149
G1 X116.67 Y107.651 E8.37991
G1 X116.551 Y108.41 E8.41823
G1 X116.353 Y109.154 E8.45664
G1 X116.079 Y109.873 E8.49503
G1 X115.732 Y110.559 E8.53339
G1 X115.316 Y111.206 E8.57176
G1 X114.835 Y111.806 E8.61013
G1 X114.426 Y112.233 E8.63963
G1 X113.854 Y112.747 E8.67799
G1 X113.232 Y113.2 E8.71638
G1 X112.567 Y113.586 E8.75474
G1 X111.865 Y113.901 E8.79313
G1 X111.134 Y114.141 E8.83152
G1 X110.383 Y114.304 E8.86986
G1 X109.618 Y114.388 E8.90825
G1 X109.193 Y114.4 E8.92946
G1 X108.308 Y114.4 E8.97362
G1 X107.54 Y114.36 E9.01198
G1 X106.78 Y114.241 E9.05036
G1 X106.037 Y114.043 E9.08872
G1 X105.318 Y113.769 E9.12711
G1 X104.632 Y113.422 E9.16546
G1 X103.985 Y113.006 E9.20384
G1 X103.385 Y112.525 E9.24221
G1 X103.205 Y112.356 E9.25452
G1 X102.54 Y112.617 E9.29016
G1 X101.798 Y112.823 E9.32858
G1 X101.04 Y112.951 E9.36694
G1 X100.191 Y113 E9.40936
G1 X99.81 Y113 E9.42837
G1 X99.042 Y112.96 E9.46674
G1 X98.282 Y112.841 E9.50512
G1 X97.539 Y112.643 E9.54348
G1 X96.82 Y112.369 E9.58187
G1 X96.791 Y112.354 E9.5835
G1 X96.354 Y112.747 E9.61282
G1 X95.732 Y113.2 E9.65121
G1 X95.067 Y113.586 E9.68957
G1 X94.365 Y113.901 E9.72795
G1 X93.634 Y114.141 E9.76634
G1 X92.883 Y114.304 E9.80468
G1 X92.118 Y114.388 E9.84308
G1 X91.693 Y114.4 E9.86429
G1 X90.808 Y114.4 E9.90844
G1 X90.04 Y114.36 E9.94681
G1 X89.28 Y114.241 E9.98519
G1 X88.537 Y114.043 E10.02355
G1 X87.818 Y113.769 E10.06194
G1 X87.132 Y113.422 E10.10029
G1 X86.485 Y113.006 E10.13866
G1 X85.885 Y112.525 E10.17703
G1 X85.458 Y112.116 E10.20653
G1 X84.944 Y111.544 E10.2449
G1 X84.491 Y110.922 E10.28328
G1 X84.105 Y110.257 E10.32165
G1 X83.79 Y109.555 E10.36003
G1 X83.55 Y108.824 E10.39842
G1 X83.387 Y108.073 E10.43676
G1 X83.303 Y107.308 E10.47515
G1 X83.291 Y106.883 E10.49637
G1 X83.291 Y93.117 E11.18315
G1 X83.331 Y92.349 E11.22152
G1 X83.45 Y91.589 E11.2599
G1 X83.648 Y90.846 E11.29826
G1 X83.922 Y90.127 E11.33665
G1 X84.269 Y89.441 E11.375
G1 X84.685 Y88.794 E11.41338
G1 X85.166 Y88.194 E11.45174
G1 X85.575 Y87.767 E11.48124
G0 F3600 X85.858 Y88.05
G1 F1800 X86.415 Y87.55 E11.51859
G1 X87.021 Y87.113 E11.55586
G1 X87.671 Y86.742 E11.5932
G1 X88.357 Y86.443 E11.63053
G1 X89.071 Y86.219 E11.66787
G1 X89.804 Y86.072 E11.70517
G1 X90.808 Y86 E11.75538
G1 X91.692 Y86 E11.79949
G1 X92.439 Y86.04 E11.83681
G1 X93.177 Y86.159 E11.8741
G1 X93.899 Y86.357 E11.91145
G1 X94.595 Y86.63 E11.94875
G1 X95.258 Y86.977 E11.98609
G1 X95.881 Y87.392 E12.02343
G1 X96.642 Y88.05 E12.07362
G1 X96.721 Y88.129 E12.0792
G1 X97.117 Y87.938 E12.10113
G1 X97.822 Y87.688 E12.13845
G1 X98.549 Y87.514 E12.17574
G1 X99.291 Y87.419 E12.21307
G1 X99.809 Y87.4 E12.23893
G1 X100.191 Y87.4 E12.25798
G1 X100.938 Y87.44 E12.29531
G1 X101.676 Y87.559 E12.3326
G1 X102.398 Y87.757 E12.36995
G1 X103.094 Y88.03 E12.40725
G1 X103.28 Y88.128 E12.41774
G1 X103.358 Y88.05 E12.42324
G1 X103.915 Y87.55 E12.46058
G1 X104.521 Y87.113 E12.49786
G1 X105.171 Y86.742 E12.5352
G1 X105.857 Y86.443 E12.57253
G1 X106.571 Y86.219 E12.60987
G1 X107.304 Y86.072 E12.64716
G1 X108.308 Y86 E12.69738
G1 X109.192 Y86 E12.74148
G1 X109.939 Y86.04 E12.77881
G1 X110.677 Y86.159 E12.8161
G1 X111.399 Y86.357 E12.85345
G1 X112.095 Y86.63 E12.89075
G1 X112.758 Y86.977 E12.92808
G1 X113.381 Y87.392 E12.96543
G1 X114.142 Y88.05 E13.01562
G1 X114.259 Y88.167 E13.02388
G1 X114.759 Y88.724 E13.06122
G1 X115.196 Y89.33 E13.09849
G1 X115.567 Y89.98 E13.13583
G1 X115.866 Y90.666 E13.17317
G1 X116.09 Y91.38 E13.2105
G1 X116.237 Y92.113 E13.2478
G1 X116.309 Y93.116 E13.29797
G1 X116.31 Y106.882 E13.98476
G1 X116.27 Y107.629 E14.02208
G1 X116.151 Y108.368 E14.05942
G1 X115.953 Y109.089 E14.09672
G1 X115.68 Y109.786 E14.13407
G1 X115.334 Y110.449 E14.17138
G1 X114.919 Y111.071 E14.20868
G1 X114.26 Y111.833 E14.25895
G1 X114.143 Y111.95 E14.2672
G1 X113.586 Y112.45 E14.30454
G1 X112.98 Y112.887 E14.34182
G1 X112.33 Y113.258 E14.37916
G1 X111.644 Y113.557 E14.41649
G1 X110.93 Y113.781 E14.45382
G1 X110.197 Y113.928 E14.49112
G1 X109.193 Y114 E14.54134
G1 X108.308 Y114 E14.58549
G1 X107.561 Y113.96 E14.62281
G1 X106.823 Y113.841 E14.66011
G1 X106.101 Y113.643 E14.69746
G1 X105.405 Y113.37 E14.73476
G1 X104.742 Y113.023 E14.77209
G1 X104.119 Y112.608 E14.80944
G1 X103.358 Y111.95 E14.85963
G1 X103.279 Y111.871 E14.8652
G1 X102.883 Y112.062 E14.88714
G1 X102.178 Y112.312 E14.92446
G1 X101.45 Y112.486 E14.9618
G1 X100.708 Y112.581 E14.99912
G1 X100.191 Y112.6 E15.02493
G1 X99.81 Y112.6 E15.04394
G1 X99.063 Y112.56 E15.08126
G1 X98.325 Y112.441 E15.11855
G1 X97.603 Y112.243 E15.15591
G1 X96.907 Y111.97 E15.1932
G1 X96.721 Y111.872 E15.20369
G1 X96.643 Y111.95 E15.2092
G1 X96.086 Y112.45 E15.24654
G1 X95.48 Y112.887 E15.28381
G1 X94.83 Y113.258 E15.32115
G1 X94.144 Y113.557 E15.35849
G1 X93.43 Y113.781 E15.39582
G1 X92.697 Y113.928 E15.43312
G1 X91.693 Y114 E15.48334
G1 X90.808 Y114 E15.52749
G1 X90.061 Y113.96 E15.56481
G1 X89.323 Y113.841 E15.60211
G1 X88.601 Y113.643 E15.63946
G1 X87.905 Y113.37 E15.67676
G1 X87.242 Y113.023 E15.71409
G1 X86.619 Y112.608 E15.75144
G1 X85.858 Y111.95 E15.80163
G1 X85.741 Y111.833 E15.80988
G1 X85.241 Y111.276 E15.84722
G1 X84.804 Y110.67 E15.8845
G1 X84.433 Y110.02 E15.92184
G1 X84.134 Y109.334 E15.95917
G1 X83.91 Y108.62 E15.99651
G1 X83.763 Y107.887 E16.0338
G1 X83.691 Y106.883 E16.08402
G1 X83.691 Y93.117 E16.77081
G1 X83.731 Y92.37 E16.80813
G1 X83.85 Y91.632 E16.84543
G1 X84.048 Y90.91 E16.88278
G1 X84.321 Y90.214 E16.92008
G1 X84.668 Y89.551 E16.95741
G1 X85.083 Y88.928 E16.99476
G1 X85.741 Y88.167 E17.04495
G1 X85.858 Y88.05 E17.0532
G0 F3600 X86.141 Y88.333
G1 F1800 X86.682 Y87.849 E17.08942
G1 X87.273 Y87.426 E17.12568
G1 X87.907 Y87.072 E17.1619
G1 X88.576 Y86.789 E17.19814
G1 X89.272 Y86.581 E17.23438
G1 X89.987 Y86.451 E17.27064
G1 X90.808 Y86.4 E17.31168
G1 X91.692 Y86.4 E17.35578
G1 X92.417 Y86.44 E17.39201
G1 X93.134 Y86.559 E17.42827
G1 X93.833 Y86.757 E17.46451
G1 X94.506 Y87.03 E17.50075
G1 X95.145 Y87.375 E17.53698
G1 X95.742 Y87.789 E17.57322
G1 X96.359 Y88.333 E17.61426
G1 X96.632 Y88.624 E17.63417
G1 X96.821 Y88.515 E17.64505
G1 X97.486 Y88.222 E17.68131
G1 X98.179 Y88.004 E17.71755
G1 X98.892 Y87.864 E17.7538
G1 X99.809 Y87.8 E17.79966
G1 X100.191 Y87.8 E17.81872
G1 X100.916 Y87.84 E17.85495
G1 X101.633 Y87.959 E17.89121
G1 X102.332 Y88.157 E17.92745
G1 X103.005 Y88.43 E17.96369
G1 X103.369 Y88.626 E17.98431
G1 X103.641 Y88.333 E18.00426
G1 X104.182 Y87.849 E18.04047
G1 X104.773 Y87.426 E18.07673
G1 X105.407 Y87.072 E18.11296
G1 X106.076 Y86.789 E18.1492
G1 X106.772 Y86.581 E18.18544
G1 X107.487 Y86.451 E18.2217
G1 X108.308 Y86.4 E18.26273
G1 X109.192 Y86.4 E18.30684
G1 X109.917 Y86.44 E18.34306
G1 X110.634 Y86.559 E18.37932
G1 X111.333 Y86.757 E18.41557
G1 X112.006 Y87.03 E18.4518
G1 X112.645 Y87.375 E18.48803
G1 X113.242 Y87.789 E18.52428
G1 X113.859 Y88.333 E18.56532
G1 X113.976 Y88.45 E18.57357
G1 X114.46 Y88.991 E18.60979
G1 X114.883 Y89.582 E18.64604
G1 X115.237 Y90.216 E18.68227
G1 X115.52 Y90.885 E18.71851
G1 X115.728 Y91.581 E18.75475
G1 X115.858 Y92.296 E18.79101
G1 X115.909 Y93.117 E18.83205
G1 X115.91 Y106.883 E19.51884
G1 X115.87 Y107.608 E19.55506
G1 X115.751 Y108.324 E19.59127
G1 X115.553 Y109.023 E19.62752
G1 X115.28 Y109.696 E19.66375
G1 X114.935 Y110.335 E19.69998
G1 X114.522 Y110.933 E19.73624
G1 X113.977 Y111.55 E19.77731
G1 X113.86 Y111.667 E19.78557
G1 X113.319 Y112.151 E19.82178
G1 X112.728 Y112.574 E19.85804
G1 X112.094 Y112.928 E19.89427
G1 X111.425 Y113.211 E19.93051
G1 X110.729 Y113.419 E19.96675
G1 X110.014 Y113.549 E20.00301
G1 X109.193 Y113.6 E20.04404
G1 X108.308 Y113.6 E20.0882
G1 X107.583 Y113.56 E20.12442
G1 X106.866 Y113.441 E20.16068
G1 X106.167 Y113.243 E20.19693
G1 X105.494 Y112.97 E20.23316
G1 X104.855 Y112.625 E20.26939
G1 X104.258 Y112.211 E20.30564
G1 X103.641 Y111.667 E20.34667
G1 X103.368 Y111.375 E20.36662
G1 X103.178 Y111.485 E20.37757
G1 X102.513 Y111.778 E20.41383
G1 X101.82 Y111.996 E20.45007
G1 X101.108 Y112.136 E20.48627
G1 X100.191 Y112.2 E20.53213
G1 X99.81 Y112.2 E20.55114
G1 X99.085 Y112.16 E20.58737
G1 X98.368 Y112.041 E20.62363
G1 X97.669 Y111.843 E20.65987
G1 X96.996 Y111.57 E20.69611
G1 X96.633 Y111.374 E20.71669
G1 X96.36 Y111.667 E20.73667
G1 X95.819 Y112.151 E20.77288
G1 X95.228 Y112.574 E20.80914
G1 X94.594 Y112.928 E20.84537
G1 X93.925 Y113.211 E20.88161
G1 X93.229 Y113.419 E20.91785
G1 X92.514 Y113.549 E20.95411
G1 X91.693 Y113.6 E20.99514
G1 X90.808 Y113.6 E21.0393
G1 X90.083 Y113.56 E21.07552
G1 X89.366 Y113.441 E21.11178
G1 X88.667 Y113.243 E21.14803
G1 X87.994 Y112.97 E21.18426
G1 X87.355 Y112.625 E21.22049
G1 X86.758 Y112.211 E21.25674
G1 X86.141 Y111.667 E21.29777
G1 X86.024 Y111.55 E21.30603
G1 X85.54 Y111.009 E21.34225
G1 X85.117 Y110.418 E21.3785
G1 X84.763 Y109.784 E21.41473
G1 X84.48 Y109.115 E21.45097
G1 X84.272 Y108.419 E21.48721
G1 X84.142 Y107.704 E21.52347
G1 X84.091 Y106.883 E21.56451
G1 X84.091 Y93.117 E22.2513
G1 X84.131 Y92.392 E22.28752
G1 X84.25 Y91.675 E22.32378
G1 X84.448 Y90.976 E22.36003
G1 X84.721 Y90.303 E22.39626
G1 X85.066 Y89.664 E22.43249
G1 X85.48 Y89.067 E22.46874
G1 X86.024 Y88.45 E22.50977
G1 X86.141 Y88.333 E22.51803
G0 F3600 X86.424 Y88.616
G1 F1800 X86.949 Y88.147 E22.55315
G1 X87.524 Y87.741 E22.58827
G1 X88.142 Y87.403 E22.62341
G1 X88.793 Y87.136 E22.65851
G1 X89.471 Y86.946 E22.69364
G1 X90.166 Y86.833 E22.72877
G1 X90.808 Y86.8 E22.76084
G1 X91.692 Y86.8 E22.80495
G1 X92.395 Y86.84 E22.84008
G1 X93.089 Y86.959 E22.87521
G1 X93.764 Y87.157 E22.9103
G1 X94.413 Y87.429 E22.94541
G1 X95.027 Y87.774 E22.98054
G1 X95.598 Y88.185 E23.01564
G1 X96.076 Y88.616 E23.04775
G1 X96.193 Y88.733 E23.05601
G1 X96.547 Y89.13 E23.08255
